static/assets/img/icons/theme/electric/outlet.svg

<svg height="24" viewBox="0 0 24 24" width="24" xmlns="http://www.w3.org/2000/svg"><g fill="none" fill-rule="evenodd"><path d="m0 0h24v24h-24z" opacity="0"/><g fill="#000"><path d="m15 4c.5522847 0 1 .44771525 1 1v4h-2v-4c0-.55228475.4477153-1 1-1zm-6 0c.55228475 0 1 .44771525 1 1v4h-2v-4c0-.55228475.44771525-1 1-1z" opacity=".3"/><path d="m13 16.9291111v5.0708889h-2v-5.0708889c-3.39229414-.4852296-6-3.4026392-6-6.9291111v-1h14v1c0 3.5264719-2.6077059 6.4438815-6 6.9291111z"/></g></g></svg>

<svg width="24px" height="24px" viewBox="0 0 24 24" version="1.1" xmlns="http://www.w3.org/2000/svg" xmlns:xlink="http://www.w3.org/1999/xlink">
    <title>Icon For Outlet</title>
    <g stroke="none" stroke-width="1" fill="none" fill-rule="evenodd">
        <rect opacity="0" x="0" y="0" width="24" height="24"></rect>
        <path d="M15,4 C15.5522847,4 16,4.44771525 16,5 L16,9 L14,9 L14,5 C14,4.44771525 14.4477153,4 15,4 Z M9,4 C9.55228475,4 10,4.44771525 10,5 L10,9 L8,9 L8,5 C8,4.44771525 8.44771525,4 9,4 Z" fill="#000000" opacity="0.3"></path>
        <path d="M13,16.9291111 L13,22 L11,22 L11,16.9291111 C7.60770586,16.4438815 5,13.5264719 5,10 L5,9 L19,9 L19,10 C19,13.5264719 16.3922941,16.4438815 13,16.9291111 Z" fill="#000000"></path>
    </g>
</svg>
